_includes/icons/color-inbox.svg

<svg fill="#666" height="50" viewBox="0 0 48 48" width="50" xmlns="http://www.w3.org/2000/svg"><path d="m37 9c-.402344-1.503906-1.34375-3-3-3h-20c-1.65625 0-2.574219 1.46875-3 3l-5 21v9h36v-9z" fill="#db8509"/><path d="m37 9c-.402344-1.503906-1.34375-3-3-3h-20c-1.65625 0-2.574219 1.46875-3 3l-5 21v9c0 1.65625 1.34375 3 3 3h30c1.65625 0 3-1.34375 3-3v-9zm-24.0625.503906c.089844-.316406.46875-1.503906 1.0625-1.503906h20c.515625 0 .90625.925781 1.0625 1.492188l4.882813 20.507812h-9.945313c0 3.3125-2.6875 6-6 6s-6-2.6875-6-6h-9.945312z" fill="#ffc107"/></svg>

<svg xmlns="http://www.w3.org/2000/svg" viewBox="0 0 48 48" width="50" height="50" fill="#666"><path d="M 37 9 C 36.597656 7.496094 35.65625 6 34 6 L 14 6 C 12.34375 6 11.425781 7.46875 11 9 L 6 30 L 6 39 L 42 39 L 42 30 Z" fill="#db8509"/><path d="M 37 9 C 36.597656 7.496094 35.65625 6 34 6 L 14 6 C 12.34375 6 11.425781 7.46875 11 9 L 6 30 L 6 39 C 6 40.65625 7.34375 42 9 42 L 39 42 C 40.65625 42 42 40.65625 42 39 L 42 30 Z M 12.9375 9.503906 C 13.027344 9.1875 13.40625 8 14 8 L 34 8 C 34.515625 8 34.90625 8.925781 35.0625 9.492188 L 39.945313 30 L 30 30 C 30 33.3125 27.3125 36 24 36 C 20.6875 36 18 33.3125 18 30 L 8.054688 30 Z" fill="#ffc107"/></svg>
